**kern	**silbe	**kern	**silbe	**harmony	**phrase	**leadinstrument	**rhyme	**timestamp	**harte
*ICvox	*	*ICvox	*	*M4/4	*	*	*	*	*M4/4
*VRlead	*	*VRharmonize	*	*	*	*	*	*	*
*Hstimme	*	*Nstimme	*	*	*	*	*	*	*
*A:	*	*A:	*	*A:	*	*	*	*	*A:
*M4/4	*	*M4/4	*	*	*	*	*	*	*
*clefF3	*	*clefF4	*	*	*	*	*	*	*
r;	.	r;	.	1r;	.	r	.	0	N.C.
=1	=1	=1	=1	=1	=1	=1	=1	=1	=1
*>Letter>A	*>Letter>A	*>Letter>A	*>Letter>A	*>Letter>A	*>Letter>A	*>Letter>A	*>Letter>A	*>Letter>A	*>Letter>A
*>Label>Intro	*>Label>Intro	*>Label>Intro	*>Label>Intro	*>Label>Intro	*>Label>Intro	*>Label>Intro	*>Label>Intro	*>Label>Intro	*>Label>Intro
1r	.	1r	.	1AM	newline	guitar	.	0.34	A:maj
=2	=2	=2	=2	=2	=2	=2	=2	=2	=2
1r	.	1r	.	2AM	.	guitar	.	1.892	A:maj
.	.	.	.	4DM	.	guitar	.	2.669	D:maj/5
.	.	.	.	4AM	.	guitar	.	3.057	A:maj
=3	=3	=3	=3	=3	=3	=3	=3	=3	=3
1r	.	1r	.	1AM	.	guitar	.	3.445	A:maj
=4	=4	=4	=4	=4	=4	=4	=4	=4	=4
1r	.	1r	.	2EM	.	guitar	.	4.998	E:maj
.	.	.	.	2AM	.	guitar	.	5.774	A:maj
=5	=5	=5	=5	=5	=5	=5	=5	=5	=5
1r	.	1r	.	1AM	.	guitar	.	6.55	A:maj
=6	=6	=6	=6	=6	=6	=6	=6	=6	=6
1r	.	1r	.	2AM	.	guitar	.	8.103	A:maj
.	.	.	.	4DM	.	guitar	.	8.879	D:maj/5
.	.	.	.	4AM	.	guitar	.	9.268	A:maj
=7	=7	=7	=7	=7	=7	=7	=7	=7	=7
1r	.	1r	.	1AM	.	guitar	.	9.656	A:maj
=8	=8	=8	=8	=8	=8	=8	=8	=8	=8
1r	.	1r	.	2EM	.	guitar	.	11.209	E:maj
.	.	.	.	2AM	.	guitar	.	11.985	A:maj
=9	=9	=9	=9	=9	=9	=9	=9	=9	=9
1r	.	1r	.	1AM	newline	guitar	.	12.761	A:maj
=10	=10	=10	=10	=10	=10	=10	=10	=10	=10
1r	.	1r	.	2EM	.	guitar	.	14.409	E:maj
.	.	.	.	2AM	.	guitar	.	15.233	A:maj
=11	=11	=11	=11	=11	=11	=11	=11	=11	=11
*>Letter>A	*>Letter>A	*>Letter>A	*>Letter>A	*>Letter>A	*>Letter>A	*>Letter>A	*>Letter>A	*>Letter>A	*>Letter>A
*>Label>Verse	*>Label>Verse	*>Label>Verse	*>Label>Verse	*>Label>Verse	*>Label>Verse	*>Label>Verse	*>Label>Verse	*>Label>Verse	*>Label>Verse
8c#	Su-	8E 8A	Su-	1AM	newline	voice	.	16.056	A:maj
8c#	-gar	8E 8A	-gar	.	.	.	.	.	.
8e	mag-	8E 8A	mag-	.	.	.	.	.	.
[8e	-no	[8F# [8B	-no	.	.	.	.	.	.
8e]	_	8F#] 8B]	_	.	.	.	.	.	.
8c#	lia,	8E 8A	lia,	.	.	.	.	.	.
4r	.	4r	.	.	.	.	.	.	.
=12	=12	=12	=12	=12	=12	=12	=12	=12	=12
8c#	blos-	8E 8A	blos-	2AM	.	voice	.	17.565	A:maj
4e	-soms	4A 4c#	-soms	.	.	.	.	.	.
[8d	bloo-	[8F# [8B	bloo-	.	.	.	.	.	.
8d]	_	8F#] 8B]	_	4DM	.	voice	.	18.319	D:maj/5
8c#	-ming,	8E 8A	-ming,	.	.	.	.	.	.
4r	.	4r	.	4AM	.	voice	.	18.696	A:maj
=13	=13	=13	=13	=13	=13	=13	=13	=13	=13
8e	heads	8c#	heads	2AM	.	voice	.	19.073	A:maj
4a	all	4e	all	.	.	.	.	.	.
.	.	8c#q	_	.	.	.	.	.	.
[8f#	emp	[8B	emp	.	.	.	.	.	.
8f#]	_	8B]	_	2GM	.	voice	.	19.827	G:maj
8e	ty	8A	ty	.	.	.	.	.	.
8d	and	8A	and	.	.	.	.	.	.
[8d	I	[8F#	I	.	.	.	.	.	.
=14	=14	=14	=14	=14	=14	=14	=14	=14	=14
8d]	_	8F#]	_	2EM	.	voice	.	20.581	E:maj
4d	don't	4E 4G#	don't	.	.	.	.	.	.
8c#	care.	8E 8A	care.	.	.	.	A	.	.
2r	.	2r	.	2AM	.	voice	.	21.336	A:maj
=15	=15	=15	=15	=15	=15	=15	=15	=15	=15
4a	Saw	1r	.	1AM	newline	voice	.	22.09	A:maj
4a	my	.	.	.	.	.	.	.	.
4f#	ba-	.	.	.	.	.	.	.	.
8e	-by	.	.	.	.	.	.	.	.
[8f#	down	.	.	.	.	.	.	.	.
=16	=16	=16	=16	=16	=16	=16	=16	=16	=16
8f#]	_	1r	.	2C#m	.	voice	.	23.641	C#:min
4e	by	.	.	.	.	.	.	.	.
8c#	the	.	.	.	.	.	.	.	.
8e	ri-	.	.	2F#m	.	voice	.	24.416	F#:min
8c#	-ver.	.	.	.	.	.	.	.	.
4r	.	.	.	.	.	.	.	.	.
=17	=17	=17	=17	=17	=17	=17	=17	=17	=17
4r	.	4r	.	1EM	.	voice	.	25.192	E:maj
8e	Knew	8E 8B	Knew	.	.	.	.	.	.
8c#	she'd	8E 8A	she'd	.	.	.	.	.	.
8e	have	8E 8A	have	.	.	.	.	.	.
8c#	to	8E 8F#	to	.	.	.	.	.	.
8e	come	8E 8A	come	.	.	.	.	.	.
8f#	up	8F# 8B	up	.	.	.	.	.	.
=18	=18	=18	=18	=18	=18	=18	=18	=18	=18
8r	.	8r	.	2DM	.	voice	.	26.743	D:maj
4e	soon	[8A 8c#	soon	.	.	.	.	.	.
.	.	8A] 8B	_	.	.	.	.	.	.
8c#	for	8G# 8A	for	.	.	.	.	.	.
8c#	air	[8E 8A	air	2AM	.	voice	A	27.518	A:maj
4.e	_	4.E] 4.E	_	.	.	.	.	.	.
=19	=19	=19	=19	=19	=19	=19	=19	=19	=19
2r	.	1r	.	1AM	newline	guitar	.	28.293	A:maj
2r	.	.	.	.	.	.	.	.	.
=20	=20	=20	=20	=20	=20	=20	=20	=20	=20
1r	.	1r	.	2EM	.	guitar	.	29.864	E:maj
.	.	.	.	2AM	.	guitar	.	30.649	A:maj
=21	=21	=21	=21	=21	=21	=21	=21	=21	=21
*>Letter>A	*>Letter>A	*>Letter>A	*>Letter>A	*>Letter>A	*>Letter>A	*>Letter>A	*>Letter>A	*>Letter>A	*>Letter>A
*>Label>Verse	*>Label>Verse	*>Label>Verse	*>Label>Verse	*>Label>Verse	*>Label>Verse	*>Label>Verse	*>Label>Verse	*>Label>Verse	*>Label>Verse
6c#	Sweet	1r	.	1AM	newline	voice	.	31.434	A:maj
6e	blos-	.	.	.	.	.	.	.	.
6c#	-som,	.	.	.	.	.	.	.	.
6e	come	.	.	.	.	.	.	.	.
3c#	on,	.	.	.	.	.	.	.	.
=22	=22	=22	=22	=22	=22	=22	=22	=22	=22
8c#	un-	1r	.	2AM	.	voice	.	32.968	A:maj
8c#	-der	.	.	.	.	.	.	.	.
8e	the	.	.	.	.	.	.	.	.
[8f#	wil	.	.	.	.	.	.	.	.
8f#]	_	.	.	4DM	.	voice	.	33.735	D:maj/5
8e	low,	.	.	.	.	.	.	.	.
4r	.	.	.	4AM	.	voice	.	34.118	A:maj
=23	=23	=23	=23	=23	=23	=23	=23	=23	=23
8c#	we	1r	.	2AM	.	voice	.	34.502	A:maj
8c#	can	.	.	.	.	.	.	.	.
8e	have	.	.	.	.	.	.	.	.
4cQ	_	.	.	.	.	.	.	.	.
[8B	high	.	.	.	.	.	.	.	.
8B]	_	.	.	2GM	.	voice	.	35.269	G:maj
[8A	times,	.	.	.	.	.	.	.	.
8A]	_	.	.	.	.	.	.	.	.
8A	if	.	.	.	.	.	.	.	.
=24	=24	=24	=24	=24	=24	=24	=24	=24	=24
8B	you'll	1r	.	2EM	.	voice	.	36.036	E:maj
8c#	a-	.	.	.	.	.	.	.	.
4c#	-bide.	.	.	.	.	.	B	.	.
2r	.	.	.	2AM	.	voice	.	36.803	A:maj
=25	=25	=25	=25	=25	=25	=25	=25	=25	=25
8c#	We	1r	.	1AM	newline	voice	.	37.57	A:maj
8c#	can	.	.	.	.	.	.	.	.
8a	dis-	.	.	.	.	.	.	.	.
[8f#	-co	.	.	.	.	.	.	.	.
8f#]	_	.	.	.	.	.	.	.	.
[8e	ver	.	.	.	.	.	.	.	.
8e]	_	.	.	.	.	.	.	.	.
8e	the	.	.	.	.	.	.	.	.
=26	=26	=26	=26	=26	=26	=26	=26	=26	=26
6f#	won-	1r	.	2C#m	.	voice	.	39.13	C#:min
6e	-ders	.	.	.	.	.	.	.	.
6c#	of	.	.	.	.	.	.	.	.
6e	na	.	.	2F#m	.	voice	.	39.91	F#:min
8c#q	_	.	.	.	.	.	.	.	.
3B	ture,	.	.	.	.	.	.	.	.
=27	=27	=27	=27	=27	=27	=27	=27	=27	=27
8e	rol-	8E 8A	rol-	1EM	.	voice	.	40.69	E:maj
8e	-ling	8E 8A	-ling	.	.	.	.	.	.
8e	in	8E 8A	in	.	.	.	.	.	.
8e	the	8E 8F#	the	.	.	.	.	.	.
8e	ru-	8E 8A	ru-	.	.	.	.	.	.
[8e	-shes,	[8E [8B	-shes,	.	.	.	.	.	.
8e]	_	8E] 8B]	_	.	.	.	.	.	.
[8f#	down	[8F# [8c#	down	.	.	.	.	.	.
=28	=28	=28	=28	=28	=28	=28	=28	=28	=28
8f#]	_	8F#] 8c#]	_	2DM	.	voice	.	42.25	D:maj
[8e	by	[8A	by	.	.	.	.	.	.
8e]	_	8A]	_	.	.	.	.	.	.
8e	the	8F# 8B	the	.	.	.	.	.	.
8e	ri-	8A 8c#	ri-	2AM	.	voice	.	43.03	A:maj
8e	-ver-	8F# 8B	-ver-	.	.	.	.	.	.
8B	-side	4E 4A	-side	.	.	.	B	.	.
8c#	_	.	.	.	.	.	.	.	.
=29	=29	=29	=29	=29	=29	=29	=29	=29	=29
1r	.	1r	.	1AM	newline	guitar	.	43.809	A:maj
=30	=30	=30	=30	=30	=30	=30	=30	=30	=30
1r	.	1r	.	2EM	.	guitar	.	45.383	E:maj
.	.	.	.	2AM	.	guitar	.	46.169	A:maj
=31	=31	=31	=31	=31	=31	=31	=31	=31	=31
*>Letter>B	*>Letter>B	*>Letter>B	*>Letter>B	*>Letter>B	*>Letter>B	*>Letter>B	*>Letter>B	*>Letter>B	*>Letter>B
*>Label>Bridge	*>Label>Bridge	*>Label>Bridge	*>Label>Bridge	*>Label>Bridge	*>Label>Bridge	*>Label>Bridge	*>Label>Bridge	*>Label>Bridge	*>Label>Bridge
4d	She's	4F# 4d	She's	1DM	newline	voice	.	46.956	D:maj
4f#	got	4A 4d	got	.	.	.	.	.	.
4d	ev-	4A 4d	ev-	.	.	.	.	.	.
8f#	-ry-	8A 8d	-ry-	.	.	.	.	.	.
[8g	-thing	[8B [8e	-thing	.	.	.	.	.	.
=32	=32	=32	=32	=32	=32	=32	=32	=32	=32
4g]	_	4B] 4e]	_	2GM	.	voice	.	48.506	G:maj
8g	de-	8B 8e	de-	.	.	.	.	.	.
8f#	-light	[8A [8d	-light	.	.	.	.	.	.
8e	_	8A] 8d]	_	2DM	.	voice	.	49.282	D:maj
8d	ful,	[8F# 8A	ful,	.	.	.	.	.	.
4r	.	8F#] 8B	_	.	.	.	.	.	.
.	.	8r	.	.	.	.	.	.	.
=33	=33	=33	=33	=33	=33	=33	=33	=33	=33
4d	she's	4F# 4d	she's	1DM	.	voice	.	50.057	D:maj
4f#	got	4A 4d	got	.	.	.	.	.	.
4d	ev-	8A [8d	ev-	.	.	.	.	.	.
.	.	8G 8d]	_	.	.	.	.	.	.
8f#	-ry-	8F# 8d	-ry-	.	.	.	.	.	.
[8e	-thing	[8G [8c#	-thing	.	.	.	.	.	.
=34	=34	=34	=34	=34	=34	=34	=34	=34	=34
8e]	_	8G] 8c#]	_	2AM	.	voice	.	51.608	A:maj
[8d	I	8F# 8A	I	.	.	.	.	.	.
4d]	_	4G 4B	_	.	.	.	.	.	.
4d	need.	4F# 4A	need.	2DM	.	voice	C	52.383	D:maj
4r	.	4r	.	.	.	.	.	.	.
=35	=35	=35	=35	=35	=35	=35	=35	=35	=35
4f#	Takes	4A 4d	She's	1DM	newline	voice	.	53.159	D:maj
8f#	the	8A 8d	got	.	.	.	.	.	.
[8f#	wheel	8A [8d	_	.	.	.	.	.	.
8f#]	_	8A 8d]	ev-	.	.	.	.	.	.
8f#	when	8F# 8B	_	.	.	.	.	.	.
[4g	I'm	[4B [4e	-ry-	.	.	.	.	.	.
=36	=36	=36	=36	=36	=36	=36	=36	=36	=36
8g]	_	8B] 8e]	_	2GM	.	voice	.	54.712	G:maj
8f#	see-	8A 8d	_	.	.	.	.	.	.
4g	-ing	4B 4e	-de-	.	.	.	.	.	.
8f#	dou	8A 8d	_	2DM	.	voice	.	55.488	D:maj
8e	_	8G 8B	-ful,	.	.	.	.	.	.
4d	ble,	4F# 4A	_	.	.	.	.	.	.
=37	=37	=37	=37	=37	=37	=37	=37	=37	=37
4f#	pays	4A 4d	she's	1DM	.	voice	.	56.265	D:maj
4f#	my	4A 4d	got	.	.	.	.	.	.
8f#	ti-	8A 8d	ev-	.	.	.	.	.	.
8d	-cket,	8G 8B	_	.	.	.	.	.	.
4r	.	4r	.	.	.	.	.	.	.
=38	=38	=38	=38	=38	=38	=38	=38	=38	=38
8d	when	8G#	_	2EM	.	voice	.	57.818	E:maj
[8e	I	[8G# [8B	-I	.	.	.	.	.	.
4e]	_	4G#] 4B]	_	.	.	.	.	.	.
[2e	speed!	[8A 8B	need.	2AM	.	voice	C	58.594	A:maj
.	.	4.A_ [4.c#	_	.	.	.	.	.	.
=39	=39	=39	=39	=39	=39	=39	=39	=39	=39
2e]	_	2A] 2c#]	_	1AM	newline	guitar	.	59.37	A:maj
2r	.	2r	.	.	.	.	.	.	.
=40	=40	=40	=40	=40	=40	=40	=40	=40	=40
1r	.	1r	.	2EM	.	guitar	.	60.919	E:maj
.	.	.	.	2AM	.	guitar	.	61.693	A:maj
=41	=41	=41	=41	=41	=41	=41	=41	=41	=41
*>Letter>A	*>Letter>A	*>Letter>A	*>Letter>A	*>Letter>A	*>Letter>A	*>Letter>A	*>Letter>A	*>Letter>A	*>Letter>A
*>Label>Interlude	*>Label>Interlude	*>Label>Interlude	*>Label>Interlude	*>Label>Interlude	*>Label>Interlude	*>Label>Interlude	*>Label>Interlude	*>Label>Interlude	*>Label>Interlude
1r	.	1r	.	1AM	newline	guitar	.	62.467	A:maj
=42	=42	=42	=42	=42	=42	=42	=42	=42	=42
1r	.	1r	.	2AM	.	guitar	.	64.035	A:maj
.	.	.	.	4DM	.	guitar	.	64.819	D:maj/5
.	.	.	.	4AM	.	guitar	.	65.211	A:maj
=43	=43	=43	=43	=43	=43	=43	=43	=43	=43
1r	.	1r	.	1AM	.	guitar	.	65.604	A:maj
=44	=44	=44	=44	=44	=44	=44	=44	=44	=44
1r	.	1r	.	2EM	.	guitar	.	67.172	E:maj
.	.	.	.	2AM	.	guitar	.	67.956	A:maj
=45	=45	=45	=45	=45	=45	=45	=45	=45	=45
1r	.	1r	.	1AM	newline	guitar	.	68.741	A:maj
=46	=46	=46	=46	=46	=46	=46	=46	=46	=46
1r	.	1r	.	2AM	.	guitar	.	70.296	A:maj
.	.	.	.	4DM	.	guitar	.	71.073	D:maj/5
.	.	.	.	4AM	.	guitar	.	71.462	A:maj
=47	=47	=47	=47	=47	=47	=47	=47	=47	=47
1r	.	1r	.	1AM	.	guitar	.	71.851	A:maj
=48	=48	=48	=48	=48	=48	=48	=48	=48	=48
1r	.	1r	.	2EM	.	guitar	.	73.406	E:maj
.	.	.	.	2AM	.	guitar	.	74.184	A:maj
=49	=49	=49	=49	=49	=49	=49	=49	=49	=49
1r	.	1r	.	1AM	newline	guitar	.	74.961	A:maj
=50	=50	=50	=50	=50	=50	=50	=50	=50	=50
1r	.	1r	.	2EM	.	guitar	.	76.52	E:maj
.	.	.	.	2AM	.	guitar	.	77.299	A:maj
=51	=51	=51	=51	=51	=51	=51	=51	=51	=51
*>Letter>A	*>Letter>A	*>Letter>A	*>Letter>A	*>Letter>A	*>Letter>A	*>Letter>A	*>Letter>A	*>Letter>A	*>Letter>A
*>Label>Verse	*>Label>Verse	*>Label>Verse	*>Label>Verse	*>Label>Verse	*>Label>Verse	*>Label>Verse	*>Label>Verse	*>Label>Verse	*>Label>Verse
8r	.	1r	.	1AM	newline	voice	.	78.079	A:maj
8C#	Well,	.	.	.	.	.	.	.	.
8c#	she	.	.	.	.	.	.	.	.
8e	comes	.	.	.	.	.	.	.	.
8e	ski-	.	.	.	.	.	.	.	.
8c#	-mmin'	.	.	.	.	.	.	.	.
8e	through	.	.	.	.	.	.	.	.
[8e	waves	.	.	.	.	.	.	.	.
=52	=52	=52	=52	=52	=52	=52	=52	=52	=52
8e]	_	1r	.	2AM	.	voice	.	79.623	A:maj
8c#	_	.	.	.	.	.	.	.	.
8e	of	.	.	.	.	.	.	.	.
[8f#	vio	.	.	.	.	.	.	.	.
8f#]	_	.	.	4DM	.	voice	.	80.395	D:maj/5
8e	let,	.	.	.	.	.	.	.	.
4r	.	.	.	4AM	.	voice	.	80.781	A:maj
=53	=53	=53	=53	=53	=53	=53	=53	=53	=53
4r	.	1r	.	2AM	.	voice	.	81.167	A:maj
8c#	she	.	.	.	.	.	.	.	.
8e	can	.	.	.	.	.	.	.	.
8c#	wade	.	.	2GM	.	voice	.	81.939	G:maj
8B	in	.	.	.	.	.	.	.	.
8A	a	.	.	.	.	.	.	.	.
8B	drop	.	.	.	.	.	.	.	.
=54	=54	=54	=54	=54	=54	=54	=54	=54	=54
8r	.	1r	.	2EM	.	voice	.	82.711	E:maj
8B	of	.	.	.	.	.	.	.	.
8r	.	.	.	.	.	.	.	.	.
[8c#	dew	.	.	.	.	.	D	.	.
8c#]	_	.	.	2AM	.	voice	.	83.483	A:maj
8r	.	.	.	.	.	.	.	.	.
4r	.	.	.	.	.	.	.	.	.
=55	=55	=55	=55	=55	=55	=55	=55	=55	=55
8r	.	1r	.	1AM	newline	voice	.	84.256	A:maj
8c#	She	.	.	.	.	.	.	.	.
8e	don't	.	.	.	.	.	.	.	.
8r	.	.	.	.	.	.	.	.	.
4e	come	.	.	.	.	.	.	.	.
8A	and	.	.	.	.	.	.	.	.
[8c#	I	.	.	.	.	.	.	.	.
=56	=56	=56	=56	=56	=56	=56	=56	=56	=56
8c#]	_	1r	.	2C#m	.	voice	.	85.839	C#:min
8c#	don't	.	.	.	.	.	.	.	.
8B	_	.	.	.	.	.	.	.	.
8A	_	.	.	.	.	.	.	.	.
8c#	fo-	.	.	2F#m	.	voice	.	86.631	F#:min
[8A	-llow	.	.	.	.	.	.	.	.
4A]	_	.	.	.	.	.	.	.	.
=57	=57	=57	=57	=57	=57	=57	=57	=57	=57
4d	Waits	1r	.	1EM	.	voice	.	87.423	E:maj
4c#	back-	.	.	.	.	.	.	.	.
4B	-stage	.	.	.	.	.	.	.	.
8A	while	.	.	.	.	.	.	.	.
[8B	I	.	.	.	.	.	.	.	.
=58	=58	=58	=58	=58	=58	=58	=58	=58	=58
8B]	_	1r	.	2DM	.	voice	.	89.007	D:maj
[8c#	sing	.	.	.	.	.	.	.	.
8c#]	_	.	.	.	.	.	.	.	.
8B	to	.	.	.	.	.	.	.	.
8B	you	.	.	2AM	.	voice	D	89.799	A:maj
[8c#	_	.	.	.	.	.	.	.	.
4c#]	_	.	.	.	.	.	.	.	.
=59	=59	=59	=59	=59	=59	=59	=59	=59	=59
1r	.	1r	.	1AM	newline	guitar	.	90.591	A:maj
=60	=60	=60	=60	=60	=60	=60	=60	=60	=60
1r	.	1r	.	2EM	.	guitar	.	92.138	E:maj
.	.	.	.	2AM	.	guitar	.	92.912	A:maj
=61	=61	=61	=61	=61	=61	=61	=61	=61	=61
*>Letter>A	*>Letter>A	*>Letter>A	*>Letter>A	*>Letter>A	*>Letter>A	*>Letter>A	*>Letter>A	*>Letter>A	*>Letter>A
*>Label>Verse	*>Label>Verse	*>Label>Verse	*>Label>Verse	*>Label>Verse	*>Label>Verse	*>Label>Verse	*>Label>Verse	*>Label>Verse	*>Label>Verse
8r	.	8r	.	1AM	newline	voice	.	93.685	A:maj
8e	Well,	8A 8A	Well,	.	.	.	.	.	.
8a	she	8B 8c#	she	.	.	.	.	.	.
8a	can	8c# 8e	can	.	.	.	.	.	.
4a	dance	8c# [8e	dance	.	.	.	.	.	.
.	.	8B 8e]	_	.	.	.	.	.	.
8a	a	8A 8c#	a	.	.	.	.	.	.
[8a	Ca	[8B [8e	Ca	.	.	.	.	.	.
=62	=62	=62	=62	=62	=62	=62	=62	=62	=62
8a]	_	8B] 8e]	_	2AM	.	voice	.	95.261	A:maj
[8a	jun	[8c# [8e	jun	.	.	.	.	.	.
8a]	_	8c#] 8e]	_	.	.	.	.	.	.
8a	a'	8B 8c#	a'	.	.	.	.	.	.
8a	rhy-	8c# 8e	rhy-	4DM	.	voice	(E	96.048	D:maj/5
[8e	-thm	8B 8c#	-thm	.	.	.	e)	.	.
8e]	_	8A	_	4AM	.	voice	.	96.442	A:maj
8r	.	8r	.	.	.	.	.	.	.
=63	=63	=63	=63	=63	=63	=63	=63	=63	=63
8c#	Jump	1r	.	2AM	.	voice	.	96.836	A:maj
8e	like	.	.	.	.	.	.	.	.
8c#	a	.	.	.	.	.	.	.	.
8B	wil-	.	.	.	.	.	.	.	.
8A	-lys	.	.	2GM	.	voice	.	97.624	G:maj
8r	.	.	.	.	.	.	.	.	.
8A	in	.	.	.	.	.	.	.	.
[8B	four	.	.	.	.	.	.	.	.
=64	=64	=64	=64	=64	=64	=64	=64	=64	=64
8B]	_	1r	.	2EM	.	voice	.	98.411	E:maj
8c#	wheel	.	.	.	.	.	.	.	.
8B	_	.	.	.	.	.	.	.	.
[8c#	drive	.	.	.	.	.	B	.	.
4c#]	_	.	.	2AM	.	voice	.	99.199	A:maj
4r	.	.	.	.	.	.	.	.	.
=65	=65	=65	=65	=65	=65	=65	=65	=65	=65
8a	She's	8c#	She's	1AM	newline	voice	.	99.986	A:maj
8a	a	8e	a	.	.	.	.	.	.
8a	sum-	8e	sum-	.	.	.	.	.	.
8a	-mer	8c#	-mer	.	.	.	.	.	.
8a	love	8c# 8e	love	.	.	.	.	.	.
8a	in	8B 8c#	in	.	.	.	.	.	.
8a	the	8A 8c#	the	.	.	.	.	.	.
[8g#	spring,	[8G# 8B	spring,	.	.	.	.	.	.
=66	=66	=66	=66	=66	=66	=66	=66	=66	=66
8g#]	_	8G#] 8c#	_	2C#m	.	voice	.	101.524	C#:min
8f#q	_	.	.	.	.	.	.	.	.
[8g#	fall,	[8G# [8c#	fall,	.	.	.	.	.	.
8g#]	_	8G#] 8c#]	_	.	.	.	.	.	.
8g#	and	8G# 8B	and	.	.	.	.	.	.
8f#	win-	8A 8c#	win-	2F#m	.	voice	(E	102.292	F#:min
[8f#	-ter,	[8F# [8A	-ter,	.	.	.	e)	.	.
4f#]	_	4F#] 4A]	_	.	.	.	.	.	.
=67	=67	=67	=67	=67	=67	=67	=67	=67	=67
8B	she	1r	.	1EM	.	voice	.	103.061	E:maj
8c#	can	.	.	.	.	.	.	.	.
8c#	make	.	.	.	.	.	.	.	.
[8B	hap	.	.	.	.	.	.	.	.
8B]	_	.	.	.	.	.	.	.	.
8A	py,	.	.	.	.	.	.	.	.
4r	.	.	.	.	.	.	.	.	.
=68	=68	=68	=68	=68	=68	=68	=68	=68	=68
8d	a-	1r	.	2DM	.	voice	.	104.598	D:maj
8c#	-ny	.	.	.	.	.	.	.	.
8B	man	.	.	.	.	.	.	.	.
8A	a-	.	.	.	.	.	.	.	.
8B	-live	.	.	2AM	.	voice	B	105.367	A:maj
8c#	_	.	.	.	.	.	.	.	.
4r	.	.	.	.	.	.	.	.	.
=69	=69	=69	=69	=69	=69	=69	=69	=69	=69
1r	.	1r	.	1AM	newline	guitar	.	106.136	A:maj
=70	=70	=70	=70	=70	=70	=70	=70	=70	=70
1r	.	1r	.	2EM	.	guitar	.	107.656	E:maj
.	.	.	.	2AM	.	guitar	.	108.417	A:maj
=71	=71	=71	=71	=71	=71	=71	=71	=71	=71
*>Letter>C	*>Letter>C	*>Letter>C	*>Letter>C	*>Letter>C	*>Letter>C	*>Letter>C	*>Letter>C	*>Letter>C	*>Letter>C
*>Label>Chorus	*>Label>Chorus	*>Label>Chorus	*>Label>Chorus	*>Label>Chorus	*>Label>Chorus	*>Label>Chorus	*>Label>Chorus	*>Label>Chorus	*>Label>Chorus
8c#	Su-	1r	.	2AM	newline	voice	.	109.177	A:maj
8c#	-gar	.	.	.	.	.	.	.	.
8e	mag	.	.	.	.	.	.	.	.
8eq	_	.	.	.	.	.	.	.	.
[8f#	no	.	.	.	.	.	.	.	.
8f#]	_	.	.	2GM	.	voice	.	109.957	G:maj
[8e	lia!	.	.	.	.	.	.	.	.
8e]	_	.	.	.	.	.	.	.	.
8r	.	.	.	.	.	.	.	.	.
=72	=72	=72	=72	=72	=72	=72	=72	=72	=72
*	*	*clefG2	*	*	*	*	*	*	*
1r	.	1r	.	2DM	.	voice	.	110.737	D:maj
.	.	.	.	2AM	.	voice	.	111.517	A:maj
=73	=73	=73	=73	=73	=73	=73	=73	=73	=73
8c#	Rin-	2a 2cc#	Doo,	2AM	.	voice	.	112.297	A:maj
8c#	-ging	.	.	.	.	.	.	.	.
8e	that	.	.	.	.	.	.	.	.
8c#q	_	.	.	.	.	.	.	.	.
[8B	blue	.	.	.	.	.	.	.	.
8B]	_	8g 8b	doo	2GM	.	voice	.	113.077	G:maj
[8A	bell!	8f# 8a	doo	.	.	.	.	.	.
8A]	_	8r	.	.	.	.	.	.	.
8r	.	8f# 8a	doo,	.	.	.	.	.	.
=74	=74	=74	=74	=74	=74	=74	=74	=74	=74
1r	.	8r	.	2DM	.	voice	.	113.857	D:maj
.	.	8c# 8e	doo,	.	.	.	.	.	.
.	.	8r	.	.	.	.	.	.	.
.	.	8A 8c#	doo	.	.	.	.	.	.
.	.	4.c# 4.e	doo.	2AM	.	voice	.	114.637	A:maj
.	.	8r	.	.	.	.	.	.	.
=75	=75	=75	=75	=75	=75	=75	=75	=75	=75
8c#	Caught	2a 2cc#	Doo	2AM	.	voice	.	115.417	A:maj
8c#	up	.	.	.	.	.	.	.	.
8e	in	.	.	.	.	.	.	.	.
8eq	_	.	.	.	.	.	.	.	.
[8f#	sun	.	.	.	.	.	.	.	.
8f#]	_	8g 8b	doo	2GM	.	voice	.	116.197	G:maj
[8e	light!	8f# 8a	doo,	.	.	.	.	.	.
8e]	_	8r	.	.	.	.	.	.	.
8r	.	8f# 8a 8dd	doo,	.	.	.	.	.	.
=76	=76	=76	=76	=76	=76	=76	=76	=76	=76
1r	.	8r	.	2DM	.	voice	.	116.977	D:maj
.	.	8c# 8e 8cc#	doo,	.	.	.	.	.	.
.	.	8r	.	.	.	.	.	.	.
.	.	8A 8c# 8b	doo	.	.	.	.	.	.
.	.	4.c# 4.e 4.a	doo!	2AM	.	voice	.	117.758	A:maj
.	.	8r	.	.	.	.	.	.	.
=77	=77	=77	=77	=77	=77	=77	=77	=77	=77
8c#	Come	2a 2cc# 2ee	Doo,	2AM	newline	voice	.	118.538	A:maj
8c#	on	.	.	.	.	.	.	.	.
4e	out	.	.	.	.	.	.	.	.
8f#	sin-	8g 8b 8ee	doo	2EM	.	voice	.	119.32	E:maj
8e	-ging	8f# 8a 8dd	doo,	.	.	.	.	.	.
8e	I'll	8r	.	.	.	.	.	.	.
[8e	walk	8f# 8a 8dd	doo,	.	.	.	.	.	.
=78	=78	=78	=78	=78	=78	=78	=78	=78	=78
8e]	_	8r	.	2GM	.	voice	.	120.103	G:maj
8e	you	8c# 8e 8cc#	doo,	.	.	.	.	.	.
8e	in	8r	.	.	.	.	.	.	.
8f#	the	8A 8c# 8b	doo	.	.	.	.	.	.
8c	sun	[2f# [2a [2dd	doo!	2DM	.	voice	.	120.885	D:maj
8B	_	.	.	.	.	.	.	.	.
4A	shine,	.	.	.	.	.	.	.	.
=79	=79	=79	=79	=79	=79	=79	=79	=79	=79
2d	_	2f#] 2a] 2dd]	_	1DM	.	voice	.	121.668	D:maj
8c	come	2r	.	.	.	.	.	.	.
8c	on,	.	.	.	.	.	.	.	.
8B	ho-	.	.	.	.	.	.	.	.
8A	-ney,	.	.	.	.	.	.	.	.
=80	=80	=80	=80	=80	=80	=80	=80	=80	=80
*M2/4	*	*M2/4	*	*M2/4	*M2/4	*M2/4	*	*M2/4	*M2/4
8B#q	_	.	.	.	.	.	.	.	.
8c#	come	2r	.	2DM	.	voice	.	123.233	D:maj
8e	a	.	.	.	.	.	.	.	.
8c#q	_	.	.	.	.	.	.	.	.
8B	long	.	.	.	.	.	.	.	.
8A	with	.	.	.	.	.	.	.	.
=81	=81	=81	=81	=81	=81	=81	=81	=81	=81
*M4/4	*	*M4/4	*	*M4/4	*M4/4	*M4/4	*	*M4/4	*M4/4
4A	me!	1r	.	1AM	newline	guitar	.	124.015	A:maj
4r	.	.	.	.	.	.	.	.	.
2r	.	.	.	.	.	.	.	.	.
=82	=82	=82	=82	=82	=82	=82	=82	=82	=82
*	*	*clefF4	*	*	*	*	*	*	*
1r	.	1r	.	2EM	.	guitar	.	125.553	E:maj
.	.	.	.	2AM	.	guitar	.	126.322	A:maj
=83	=83	=83	=83	=83	=83	=83	=83	=83	=83
*>Letter>B	*>Letter>B	*>Letter>B	*>Letter>B	*>Letter>B	*>Letter>B	*>Letter>B	*>Letter>B	*>Letter>B	*>Letter>B
*>Label>Bridge	*>Label>Bridge	*>Label>Bridge	*>Label>Bridge	*>Label>Bridge	*>Label>Bridge	*>Label>Bridge	*>Label>Bridge	*>Label>Bridge	*>Label>Bridge
4d	She's	4F# 4d	She's	1DM	newline	voice	.	127.091	D:maj
4f#	got	4A 4d	got	.	.	.	.	.	.
4d	ev-	4A 4d	ev-	.	.	.	.	.	.
8f#	-ry-	8A 8d	-ry-	.	.	.	.	.	.
[8g	-thing	[8B [8e	-thing	.	.	.	.	.	.
=84	=84	=84	=84	=84	=84	=84	=84	=84	=84
4g]	_	4B] 4e]	_	2GM	.	voice	.	128.641	G:maj
8g	de-	8B 8e	de-	.	.	.	.	.	.
8f#	-light	[8A [8d	-light	.	.	.	.	.	.
8e	_	8A] 8d]	_	2DM	.	voice	.	129.415	D:maj
8d	ful,	[8F# 8A	ful,	.	.	.	.	.	.
4r	.	8F#] 8B	_	.	.	.	.	.	.
.	.	8r	.	.	.	.	.	.	.
=85	=85	=85	=85	=85	=85	=85	=85	=85	=85
4d	she's	4F# 4d	she's	1DM	.	voice	.	130.19	D:maj
4f#	got	4A 4d	got	.	.	.	.	.	.
4d	ev-	8A [8d	ev-	.	.	.	.	.	.
.	.	8G 8d]	_	.	.	.	.	.	.
8f#	-ry-	8F# 8d	-ry-	.	.	.	.	.	.
[8e	-thing	[8G [8c#	-thing	.	.	.	.	.	.
=86	=86	=86	=86	=86	=86	=86	=86	=86	=86
8e]	_	8G] 8c#]	_	2AM	.	voice	.	131.74	A:maj
[8d	I	8F# 8A	I	.	.	.	.	.	.
4d]	_	4G 4B	_	.	.	.	.	.	.
4d	need.	4F# 4A	need.	2DM	.	voice	C	132.515	D:maj
8r	.	8r	.	.	.	.	.	.	.
8d	A	8A	A	.	.	.	.	.	.
=87	=87	=87	=87	=87	=87	=87	=87	=87	=87
8f#	breeze	8A 8d	breeze	1DM	newline	voice	.	133.29	D:maj
8d	in	8F# 8B	in	.	.	.	.	.	.
8f#	the	8A 8d	the	.	.	.	.	.	.
[8f#	pines,	[8A [8d	pines,	.	.	.	.	.	.
8f#]	_	8A] 8d]	_	.	.	.	.	.	.
8d	and	8F# 8B	and	.	.	.	.	.	.
8f#	the	8A 8d	the	.	.	.	.	.	.
[8g	sun,	[8B [8e	sun,	.	.	.	.	.	.
=88	=88	=88	=88	=88	=88	=88	=88	=88	=88
8g]	_	8B] 8e]	_	2GM	.	voice	.	134.855	G:maj
8d	and	8A 8d	and	.	.	.	.	.	.
4g	bright	4B 4e	bright	.	.	.	.	.	.
8f#	moon	8A 8d	moon	2DM	.	voice	.	135.637	D:maj
8e	_	8G 8B	_	.	.	.	.	.	.
4d	light,	4F# 4A	light,	.	.	.	.	.	.
=89	=89	=89	=89	=89	=89	=89	=89	=89	=89
8f#	cra-	8A 8d	cra-	1DM	.	voice	.	136.42	D:maj
8e	-zy	8A 8d	-zy	.	.	.	.	.	.
8f#	in	8A 8d	in	.	.	.	.	.	.
8e	the	8A 8d	the	.	.	.	.	.	.
8f#	sun	8A [8d	sun	.	.	.	.	.	.
8e	_	8G 8d]	_	.	.	.	.	.	.
4d	light?	4F# 4B	light?	.	.	.	.	.	.
=90	=90	=90	=90	=90	=90	=90	=90	=90	=90
8B	Yes,	8G# 8B	Yes,	2EM	.	voice	.	137.985	E:maj
[8e	in	4.G# 4.B	in	.	.	.	.	.	.
8e]	_	.	.	.	.	.	.	.	.
[8e	deed!	.	.	.	.	.	C	.	.
2e_	_	[8A 8B	deed!	2AM	.	voice	.	138.767	A:maj
.	.	4.A_ [4.c#	_	.	.	.	.	.	.
=91	=91	=91	=91	=91	=91	=91	=91	=91	=91
2e]	_	2A] 2c#]	_	1AM	newline	guitar	.	139.55	A:maj
2r	.	2r	.	.	.	.	.	.	.
=92	=92	=92	=92	=92	=92	=92	=92	=92	=92
1r	.	1r	.	2EM	.	guitar	.	141.114	E:maj
.	.	.	.	2AM	.	guitar	.	141.895	A:maj
=93	=93	=93	=93	=93	=93	=93	=93	=93	=93
*>Letter>A2	*>Letter>A2	*>Letter>A2	*>Letter>A2	*>Letter>A2	*>Letter>A2	*>Letter>A2	*>Letter>A2	*>Letter>A2	*>Letter>A2
*>Label>Verse	*>Label>Verse	*>Label>Verse	*>Label>Verse	*>Label>Verse	*>Label>Verse	*>Label>Verse	*>Label>Verse	*>Label>Verse	*>Label>Verse
8r	.	1r	.	1AM	newline	voice	.	142.677	A:maj
8E	A'-	.	.	.	.	.	.	.	.
8e	-some-	.	.	.	.	.	.	.	.
[8e	-times	.	.	.	.	.	.	.	.
8e]	_	.	.	.	.	.	.	.	.
8c#	when	.	.	.	.	.	.	.	.
8e	the	.	.	.	.	.	.	.	.
8e	cu	.	.	.	.	.	.	.	.
=94	=94	=94	=94	=94	=94	=94	=94	=94	=94
8r	.	1r	.	2AM	.	voice	.	144.218	A:maj
[8e	ckoo's	.	.	.	.	.	.	.	.
8e]	_	.	.	.	.	.	.	.	.
[8e	cry	.	.	.	.	.	(F	.	.
8e]	_	.	.	4DM	.	voice	.	144.988	D:maj/5
8c#q	_	.	.	.	.	.	.	.	.
[8B	ing,	.	.	.	.	.	f)	.	.
8B]	_	.	.	4AM	.	voice	.	145.374	A:maj
8r	.	.	.	.	.	.	.	.	.
=95	=95	=95	=95	=95	=95	=95	=95	=95	=95
4r	.	1r	.	1AM	.	voice	.	145.759	A:maj
8c#	when	.	.	.	.	.	.	.	.
8e	the	.	.	.	.	.	.	.	.
8c	moon	.	.	.	.	.	.	.	.
8B	_	.	.	.	.	.	.	.	.
8A	is	.	.	.	.	.	.	.	.
8B	half	.	.	.	.	.	.	.	.
=96	=96	=96	=96	=96	=96	=96	=96	=96	=96
8r	.	1r	.	2AM	.	voice	.	147.3	A:maj
[8B	way	.	.	.	.	.	.	.	.
8B]	_	.	.	.	.	.	.	.	.
8A	_	.	.	.	.	.	.	.	.
8B	down,	.	.	4DM	.	voice	G	148.07	D:maj/5
[8c#	_	.	.	.	.	.	.	.	.
8c#]	_	.	.	4AM	.	voice	.	148.455	A:maj
8r	.	.	.	.	.	.	.	.	.
=97	=97	=97	=97	=97	=97	=97	=97	=97	=97
*B:	*	*B:	*	*B:	*	*	*	*	*B:
*	*	*clefG2	*	*	*	*	*	*	*
4r	.	[1B [1d# [1f#	_	1BM	newline	voice	.	148.841	B:maj
8d#	some	.	.	.	.	.	.	.	.
[8d#	times	.	.	.	.	.	.	.	.
8d#]	_	.	.	.	.	.	.	.	.
8B	when	.	.	.	.	.	.	.	.
8B	the	.	.	.	.	.	.	.	.
8e	night	.	.	.	.	.	.	.	.
=98	=98	=98	=98	=98	=98	=98	=98	=98	=98
8r	.	1B] 1d#] 1f#]	_	2BM	.	voice	.	150.399	B:maj
8e	is	.	.	.	.	.	.	.	.
4f#	_	.	.	.	.	.	.	.	.
8d#	dy	.	.	4EM	.	voice	(F	151.179	E:maj/5
8c#	_	.	.	.	.	.	.	.	.
4B	ing,	.	.	4BM	.	voice	f)	151.568	B:maj
=99	=99	=99	=99	=99	=99	=99	=99	=99	=99
*	*	*clefF4	*	*	*	*	*	*	*
8r	.	8r	.	1BM	.	voice	.	151.958	B:maj
8B	I	8F# 8d#	I	.	.	.	.	.	.
8d#	take	8B 8f#	take	.	.	.	.	.	.
8c#	me	8B 8f#	me	.	.	.	.	.	.
8d#	out	8B 8f#	out	.	.	.	.	.	.
8c#	_	8G# 8e	_	.	.	.	.	.	.
8B	and	8F# 8d#	and	.	.	.	.	.	.
8B	I	8F# 8d#	I	.	.	.	.	.	.
=100	=100	=100	=100	=100	=100	=100	=100	=100	=100
*M2/4	*	*M2/4	*	*M2/4	*M2/4	*M2/4	*	*M2/4	*M2/4
4G#	wan-	4F# 4d#	wan-	2F#M	.	voice	.	153.517	F#:maj
4B	-der	4F# 4f#	-der	.	.	.	.	.	.
=101	=101	=101	=101	=101	=101	=101	=101	=101	=101
*M4/4	*	*M4/4	*	*M4/4	*M4/4	*M4/4	*	*M4/4	*M4/4
2c#	'round	2E [2g#	'round!	2EM	.	voice	G	154.296	E:maj
[2B	_	[2F# 2g#_	_	2DM	.	voice	.	155.075	D:maj
=102	=102	=102	=102	=102	=102	=102	=102	=102	=102
8B_	_	8F#] 8g#_	_	2AM	.	voice	.	155.855	A:maj
8A	_	8E 8g#]	_	.	.	.	.	.	.
4G#	_	4E [4e	_	.	.	.	.	.	.
2B]	_	2G# 2e]	_	2EM	.	voice	.	156.634	E:maj
=103	=103	=103	=103	=103	=103	=103	=103	=103	=103
*	*	*clefG2	*	*	*	*	*	*	*
8r	.	[1B [1d# [1b	_	2BM	newline	voice	.	157.414	B:maj
8G#	I	.	.	.	.	.	.	.	.
8d#	wan-	.	.	.	.	.	.	.	.
8B	-der	.	.	.	.	.	.	.	.
8B	round!	.	.	2AM	.	voice	G	158.21	A:maj
8G#	_	.	.	.	.	.	.	.	.
4r	.	.	.	.	.	.	.	.	.
=104	=104	=104	=104	=104	=104	=104	=104	=104	=104
1r	.	4B_ 4d#] 4b]	_	2EM	.	voice	.	159.006	E:maj
.	.	4B]	_	.	.	.	.	.	.
.	.	2r	.	2BM	.	voice	.	159.803	B:maj
=105	=105	=105	=105	=105	=105	=105	=105	=105	=105
1r	.	1r	.	1BM	.	voice	.	160.599	B:maj
=106	=106	=106	=106	=106	=106	=106	=106	=106	=106
*M2/4	*	*M2/4	*	*M2/4	*M2/4	*M2/4	*	*M2/4	*M2/4
2r	.	2r	.	2N	.	voice	.	162.192	N.C.
=107	=107	=107	=107	=107	=107	=107	=107	=107	=107
*>Label>>Outro	*>Label>>Outro	*>Label>>Outro	*>Label>>Outro	*>Label>>Outro	*>Label>>Outro	*>Label>>Outro	*>Label>>Outro	*>Label>>Outro	*>Label>>Outro
*clefF4	*	*	*	*M4/4	*M4/4	*M4/4	*	*M4/4	*M4/4
2r	.	8d# 8f#	Doo,	1BM	newline	.	.	162.988	B:maj
.	.	8r	.	.	.	.	.	.	.
.	.	8r	.	.	.	.	.	.	.
.	.	8d# 8f#	doo	.	.	.	.	.	.
4r	.	8d# 8f#	doo	.	.	.	.	.	.
.	.	8d# 8f#	doo,	.	.	.	.	.	.
8r	.	4r	.	.	.	.	.	.	.
8F#	A'-	.	.	.	.	.	.	.	.
=108	=108	=108	=108	=108	=108	=108	=108	=108	=108
4d#	-sun-	4r	.	2BM	.	.	.	164.531	B:maj
8c#	-shine	8d# 8f#	doo	.	.	.	.	.	.
8B	_	8e 8g#	doo,	.	.	.	.	.	.
4d#	day-	8r	.	2EM	.	.	.	165.303	E:maj/5
.	.	8d# 8f#	doo	.	.	.	.	.	.
8c#	-dream!	8e 8g#	doo	.	.	.	H	.	.
8B	_	8r	.	.	.	.	.	.	.
=109	=109	=109	=109	=109	=109	=109	=109	=109	=109
2r	.	8d# 8f#	doo,	1BM	.	.	.	166.075	B:maj
.	.	8r	.	.	.	.	.	.	.
.	.	8r	.	.	.	.	.	.	.
.	.	8d# 8f#	doo	.	.	.	.	.	.
4r	.	8d# 8f#	doo	.	.	.	.	.	.
.	.	8d# 8f#	doo,	.	.	.	.	.	.
8r	.	8r	.	.	.	.	.	.	.
8F#	A'-	8c# 8f#	doo,	.	.	.	.	.	.
=110	=110	=110	=110	=110	=110	=110	=110	=110	=110
8f#	-wal-	8r	.	2F#M	.	.	.	167.619	F#:maj
[8f#	-kin'	8d# 8f#	doo,	.	.	.	.	.	.
8f#]	in	8r	.	.	.	.	.	.	.
8g#	the	8c# 8e	doo	.	.	.	.	.	.
8c##q	_	.	.	.	.	.	.	.	.
8d#	tall	4B 4g#	doo!	2EM	.	.	.	168.39	E:maj
8c#	_	.	.	.	.	.	.	.	.
4B	trees!	4r	.	.	.	.	H	.	.
=111	=111	=111	=111	=111	=111	=111	=111	=111	=111
2r	.	8B 8d# 8f#	Doo,	1BM	.	.	.	169.162	B:maj
.	.	8r	.	.	.	.	.	.	.
.	.	8r	.	.	.	.	.	.	.
.	.	8B 8d# 8f#	doo	.	.	.	.	.	.
4r	.	8B 8d# 8f#	doo	.	.	.	.	.	.
.	.	8B 8d# 8f#	doo,	.	.	.	.	.	.
8r	.	4r	.	.	.	.	.	.	.
8F#	A'-	.	.	.	.	.	.	.	.
=112	=112	=112	=112	=112	=112	=112	=112	=112	=112
*clefG2	*	*	*	*	*	*	*	*	*
8d	-go-	4r	.	2BM	.	.	.	170.706	B:maj
8d	-ing	.	.	.	.	.	.	.	.
8c#	where	8B 8d# 8f#	doo	.	.	.	.	.	.
8B	the	8B 8e 8g#	doo,	.	.	.	.	.	.
8d	wind	8r	.	2EM	.	.	.	171.477	E:maj/5
8d	_	8B 8d# 8f#	doo	.	.	.	.	.	.
8c#	goes!	8B 8e 8g#	doo	.	.	.	I	.	.
8B	_	8r	.	.	.	.	.	.	.
=113	=113	=113	=113	=113	=113	=113	=113	=113	=113
1r	.	8B 8d# 8f#	doo,	1BM	.	.	.	172.249	B:maj
.	.	8r	.	.	.	.	.	.	.
.	.	8r	.	.	.	.	.	.	.
.	.	8B 8d# 8f#	doo	.	.	.	.	.	.
.	.	8B 8d# 8f#	doo	.	.	.	.	.	.
.	.	8B 8d# 8f#	doo,	.	.	.	.	.	.
.	.	8r	.	.	.	.	.	.	.
.	.	8A# 8c# 8f#	doo,	.	.	.	.	.	.
=114	=114	=114	=114	=114	=114	=114	=114	=114	=114
2r	.	8r	.	2F#M	.	.	.	173.793	F#:maj
.	.	8A# 8d# 8f#	doo,	.	.	.	.	.	.
.	.	8r	.	.	.	.	.	.	.
.	.	8G# 8c# 8e	doo	.	.	.	.	.	.
8g#	Bloo-	4B 4e 4g#	doo!	2EM	.	.	.	174.565	E:maj
8f#	-min'	.	.	.	.	.	.	.	.
8f#	like	4r	.	.	.	.	.	.	.
8g#	a	.	.	.	.	.	.	.	.
=115	=115	=115	=115	=115	=115	=115	=115	=115	=115
8d#	red	8B 8d# 8f#	Doo,	1BM	.	.	.	175.336	B:maj
8c#	_	8r	.	.	.	.	.	.	.
4B	rose!	8r	.	.	.	.	I	.	.
.	.	8B 8d# 8f#	doo	.	.	.	.	.	.
2r	.	8B 8d# 8f#	doo	.	.	.	.	.	.
.	.	8B 8d# 8f#	doo,	.	.	.	.	.	.
.	.	4r	.	.	.	.	.	.	.
=116	=116	=116	=116	=116	=116	=116	=116	=116	=116
2r	.	4r	.	2BM	.	.	.	176.88	B:maj
.	.	8B 8d# 8f#	doo	.	.	.	.	.	.
.	.	8c# 8e 8g#	doo,	.	.	.	.	.	.
8d	Brea-	8r	.	2EM	.	.	.	177.652	E:maj/5
8d#	-thin'	8B 8d# 8f#	doo	.	.	.	.	.	.
8c#	more	8c# 8e 8g#	doo	.	.	.	.	.	.
8B	_	8r	.	.	.	.	.	.	.
=117	=117	=117	=117	=117	=117	=117	=117	=117	=117
8d	free	8B 8d# 8f#	doo,	1BM	.	.	(J	178.423	B:maj
8d#	_	8r	.	.	.	.	.	.	.
8c#	ly!	8r	.	.	.	.	j)	.	.
8B	_	8B 8d# 8f#	doo	.	.	.	.	.	.
2r	.	8B 8d# 8f#	doo	.	.	.	.	.	.
.	.	8B 8d# 8f#	doo,	.	.	.	.	.	.
.	.	8r	.	.	.	.	.	.	.
.	.	8A# 8c# 8f#	doo,	.	.	.	.	.	.
=118	=118	=118	=118	=118	=118	=118	=118	=118	=118
2r	.	8r	.	2F#M	.	.	.	179.967	F#:maj
.	.	8A# 8d# 8f#	doo,	.	.	.	.	.	.
.	.	8r	.	.	.	.	.	.	.
.	.	8G# 8c# 8e	doo	.	.	.	.	.	.
8f#	Lord,	4B 4e 4g#	doo!	2EM	.	.	.	180.739	E:maj
[8f#	I'm	.	.	.	.	.	.	.	.
8f#]	_	4r	.	.	.	.	.	.	.
[8g#	sin-	.	.	.	.	.	(J	.	.
=119	=119	=119	=119	=119	=119	=119	=119	=119	=119
8g#]	_	8B 8d# 8f#	Doo,	1BM	newline	fadeout voice	.	181.511	B:maj
8f#	-ging,	8r	.	.	.	.	j)	.	.
8f#	I'll	8r	.	.	.	.	.	.	.
[8f#	walk	8B 8d# 8f#	doo	.	.	.	.	.	.
8f#]	_	8B 8d# 8f#	doo	.	.	.	.	.	.
8f#	you	8B 8d# 8f#	doo,	.	.	.	.	.	.
8f#	in	4r	.	.	.	.	.	.	.
8g#	the	.	.	.	.	.	.	.	.
=120	=120	=120	=120	=120	=120	=120	=120	=120	=120
8c#q	_	.	.	.	.	.	.	.	.
8d	mor	4r	.	2BM	.	fadeout voice	.	182.83	B:maj
8c#	_	.	.	.	.	.	.	.	.
8B	ning	8B 8d# 8f#	doo	.	.	.	.	.	.
8dq	_	.	.	.	.	.	.	.	.
[8c#	sun	8c# 8e 8g#	doo,	.	.	.	.	.	.
8c#]	_	8r	.	2EM	.	fadeout voice	.	183.49	E:maj/5
8c#	shine!	8B 8d# 8f#	doo	.	.	.	.	.	.
4B	_	8c# 8e 8g#	doo	.	.	.	.	.	.
.	.	8r	.	.	.	.	.	.	.
=121	=121	=121	=121	=121	=121	=121	=121	=121	=121
1r	.	8B 8d# 8f#	doo,	1BM	.	fadeout voice	.	184.149	B:maj
.	.	8r	.	.	.	.	.	.	.
.	.	8r	.	.	.	.	.	.	.
.	.	8B 8d# 8f#	doo	.	.	.	.	.	.
.	.	8B 8d# 8f#	doo	.	.	.	.	.	.
.	.	8B 8d# 8f#	doo,	.	.	.	.	.	.
.	.	8r	.	.	.	.	.	.	.
.	.	8A# 8c# 8f#	doo,	.	.	.	.	.	.
=122	=122	=122	=122	=122	=122	=122	=122	=122	=122
8d	Sun-	8r	.	2F#M	.	fadeout voice	.	185.468	F#:maj
8d	_	8A# 8d# 8f#	doo,	.	.	.	.	.	.
8c#	-shine	8r	.	.	.	.	.	.	.
8B	_	8G# 8c# 8e	doo	.	.	.	.	.	.
8d	day	4B 4e 4g#	doo!	2EM	.	fadeout voice	.	186.128	E:maj
8d	_	.	.	.	.	.	.	.	.
8c#	dream!	4r	.	.	.	.	.	.	.
8B	_	.	.	.	.	.	.	.	.
=123	=123	=123	=123	=123	=123	=123	=123	=123	=123
2r	.	8B 8d# 8f#	Doo,	1BM	.	fadeout voice	.	186.788	B:maj
.	.	8r	.	.	.	.	.	.	.
.	.	8r	.	.	.	.	.	.	.
.	.	8B 8d# 8f#	doo	.	.	.	.	.	.
4r	.	8B 8d# 8f#	doo	.	.	.	.	.	.
.	.	8B 8d# 8f#	doo,	.	.	.	.	.	.
8r	.	4r	.	.	.	.	.	.	.
[8d	Sun	.	.	.	.	.	.	.	.
=124	=124	=124	=124	=124	=124	=124	=124	=124	=124
8d]	_	4r	.	2BM	.	fadeout voice	.	188.107	B:maj
8c#	shine	.	.	.	.	.	.	.	.
8B	_	8B 8d# 8f#	doo	.	.	.	.	.	.
[8d	day	8c# 8e 8g#	doo,	.	.	.	.	.	.
8d]	_	8r	.	2EM	.	fadeout voice	.	188.767	E:maj/5
8c#	dream!	8B 8d# 8f#	doo	.	.	.	.	.	.
4B	_	8c# 8e 8g#	doo	.	.	.	.	.	.
.	.	8r	.	.	.	.	.	.	.
=125	=125	=125	=125	=125	=125	=125	=125	=125	=125
1r	.	8B 8d# 8f#	doo,	1BM	.	fadeout voice	.	189.426	B:maj
.	.	8r	.	.	.	.	.	.	.
.	.	8r	.	.	.	.	.	.	.
.	.	8B 8d# 8f#	doo	.	.	.	.	.	.
.	.	8B 8d# 8f#	doo	.	.	.	.	.	.
.	.	8B 8d# 8f#	doo,	.	.	.	.	.	.
.	.	8r	.	.	.	.	.	.	.
.	.	8A# 8c# 8f#	doo,	.	.	.	.	.	.
=126	=126	=126	=126	=126	=126	=126	=126	=126	=126
8f#	Walk	8r	.	2F#M	.	fadeout voice	.	190.746	F#:maj
[8f#	you	8A# 8d# 8f#	doo,	.	.	.	.	.	.
8f#]	in	8r	.	.	.	.	.	.	.
8g#	the	8G# 8c# 8e	doo	.	.	.	.	.	.
8c##q	_	.	.	.	.	.	.	.	.
8d#	sun	4B 4e 4g#	doo!	2EM	.	fadeout voice	.	191.405	E:maj
8c#	_	.	.	.	.	.	.	.	.
4B	shine!	4r	.	.	.	.	.	.	.
=127	=127	=127	=127	=127	=127	=127	=127	=127	=127
1r	.	1r	.	1BM	.	fadeout voice	.	192.065	B:maj
=128	=128	=128	=128	=128	=128	=128	=128	=128	=128
1r	.	1r	.	2BM	.	fadeout voice	.	193.384	B:maj
.	.	.	.	2EM	.	fadeout voice	.	194.044	E:maj/5
=129	=129	=129	=129	=129	=129	=129	=129	=129	=129
1r	.	1r	.	1BM	.	fadeout voice	.	194.703	B:maj
=130	=130	=130	=130	=130	=130	=130	=130	=130	=130
1r	.	1r	.	2F#M	.	fadeout voice	.	196.023	F#:maj
.	.	.	.	2EM	.	fadeout voice	.	196.682	E:maj
r;	.	r;	.	1r;	.	r	.	197.342	N.C.
r;	.	r;	.	1r;	.	r	.	199.131	N.C.
*-	*-	*-	*-	*-	*-	*-	*-	*-	*-
!!!BillboardChartDate: 1973/02/10
!!!BillboardPeak: 91
!!!BillboardWeeksOnChart: 2
!!!COC: Grateful Dead
!!!ENC: Nathaniel Condit-Schultz
!!!EST: Awating manual error checking and editing.
!!!OTL: Sugar Magnolia
!!!RDF**chordsym: original McGill chord annotation + (implied pitch class set, with bass pitch in first position)
!!!RDF**harmony: **recip + pitch class of root + harmonic quality
!!!RDF**leadinstrument: original McGill primary instrumentation annotation
!!!RDF**phrase: newline = linebreak in original McGill transcription
!!!RDF**timestamp: McGill audio timestamp in seconds
!!!RDT: 2017/01/12/
!!!SampleActualRank: 91
!!!SampleID#: 1034
!!!SampleTargetRank: 93
